x-pack/plugins/enterprise_search/public/assets/source_icons/mysql.svg

<svg width="24" height="24" viewBox="0 0 24 24" fill="none" xmlns="http://www.w3.org/2000/svg">
  <path fill-rule="evenodd" clip-rule="evenodd"
    d="M22.1282 18.2188C20.8367 18.1864 19.8365 18.3153 18.9977 18.6706C18.7556 18.7673 18.3688 18.7673 18.3357 19.074C18.4657 19.2028 18.4812 19.4124 18.595 19.5907C18.788 19.9134 19.1263 20.3484 19.4334 20.5749C19.7724 20.8332 20.1113 21.0905 20.4667 21.3163C21.0956 21.7053 21.8058 21.9302 22.4181 22.3177C22.7743 22.5432 23.128 22.8335 23.4842 23.0762C23.661 23.2052 23.7731 23.4153 24 23.4951V23.4462C23.8862 23.3015 23.8545 23.0916 23.7421 22.9293C23.5811 22.7692 23.4194 22.6231 23.2577 22.4624C22.7895 21.8332 22.2078 21.2851 21.58 20.8332C21.0632 20.4773 19.933 19.9931 19.7241 19.3979C19.7241 19.3979 19.7072 19.3808 19.6913 19.3649C20.0464 19.3321 20.4667 19.2028 20.8053 19.105C21.3531 18.9602 21.8534 18.9929 22.4181 18.8481C22.6767 18.7831 22.935 18.7018 23.1942 18.6225V18.4763C22.9022 18.1864 22.6933 17.7986 22.3868 17.5245C21.5645 16.8148 20.6598 16.1214 19.7241 15.5396C19.2231 15.2168 18.5777 15.0081 18.045 14.7331C17.8523 14.6361 17.53 14.5883 17.4165 14.426C17.1259 14.0711 16.9638 13.6038 16.7546 13.1836C16.287 12.2971 15.8344 11.3131 15.4317 10.3757C15.1414 9.74679 14.9638 9.11793 14.6087 8.53664C12.9459 5.79294 11.1393 4.13183 8.36383 2.50174C7.76669 2.16249 7.0568 2.01734 6.29899 1.83978C5.89492 1.82289 5.49188 1.79151 5.08849 1.77565C4.82991 1.66222 4.57134 1.35538 4.34586 1.21023C3.42566 0.629629 1.05466 -0.628792 0.376489 1.03301C-0.059303 2.0825 1.0219 3.11475 1.39322 3.64742C1.66732 4.01805 2.02278 4.43833 2.21551 4.85723C2.32859 5.13167 2.361 5.42266 2.47443 5.71261C2.73232 6.4225 2.974 7.21341 3.3136 7.87537C3.49047 8.21428 3.68389 8.56974 3.90972 8.87487C4.04004 9.05346 4.26518 9.1331 4.31379 9.42443C4.08865 9.74679 4.07107 10.2309 3.94212 10.6346C3.36153 12.4581 3.58701 14.7172 4.41033 16.0563C4.66787 16.4596 5.28191 17.3474 6.10488 17.0077C6.83097 16.7178 6.66962 15.798 6.87924 14.9916C6.92751 14.7966 6.8951 14.6687 6.99164 14.5398V14.5724C7.21747 15.0236 7.44398 15.4582 7.6536 15.9115C8.15456 16.7014 9.02511 17.5245 9.75189 18.0726C10.138 18.3642 10.4449 18.8636 10.9289 19.0417V18.9929H10.8972C10.8 18.8481 10.6552 18.7831 10.5259 18.6706C10.2356 18.38 9.91358 18.0248 9.68672 17.7023C9.00925 16.799 8.41141 15.798 7.88012 14.7654C7.62119 14.264 7.39571 13.7159 7.18575 13.2159C7.08921 13.0232 7.08921 12.7319 6.92751 12.6353C6.68479 12.9899 6.33071 13.297 6.1535 13.7313C5.84665 14.426 5.81458 15.281 5.70081 16.169C5.63668 16.1858 5.66909 16.169 5.63668 16.201C5.1209 16.072 4.94335 15.5396 4.74924 15.0893C4.26518 13.9421 4.18381 12.1026 4.60409 10.7794C4.71649 10.4412 5.20192 9.37616 5.00747 9.05346C4.9099 8.74557 4.58754 8.56974 4.41033 8.32668C4.20105 8.02017 3.97384 7.63368 3.83007 7.29408C3.44255 6.39078 3.24775 5.3899 2.82954 4.4866C2.63578 4.06632 2.29618 3.63053 2.02278 3.24404C1.71559 2.80825 1.37702 2.50174 1.13464 1.98596C1.05466 1.80806 0.941571 1.51742 1.07017 1.32435C1.10189 1.19506 1.1674 1.14644 1.29669 1.11403C1.50527 0.936476 2.10311 1.16196 2.31238 1.25884C2.90987 1.50018 3.41014 1.72739 3.90972 2.06561C4.13589 2.22731 4.37792 2.53381 4.66787 2.61517H5.00747C5.5236 2.72722 6.10488 2.64655 6.58929 2.79239C7.44398 3.06648 8.21834 3.46987 8.91271 3.90566C11.0258 5.2451 12.7686 7.14962 13.946 9.42443C14.1402 9.79506 14.2215 10.1343 14.3987 10.5208C14.7376 11.3131 15.1576 12.1199 15.4958 12.8936C15.8344 13.6521 16.1578 14.426 16.6425 15.0563C16.8839 15.3946 17.8523 15.5721 18.2881 15.7497C18.6101 15.8945 19.1111 16.0238 19.4017 16.201C19.9503 16.5393 20.4978 16.9272 21.0149 17.2989C21.2725 17.4926 22.0796 17.8955 22.1282 18.2188Z"
    fill="#2C7493" />
</svg>

<svg width="24" height="24" fill="none" xmlns="http://www.w3.org/2000/svg"><path fill-rule="evenodd" clip-rule="evenodd" d="M22.128 18.219c-1.291-.033-2.291.096-3.13.452-.242.096-.63.096-.662.403.13.129.145.338.259.517.193.322.531.757.838.984.34.258.678.515 1.034.741.629.39 1.339.614 1.951 1.002.356.225.71.515 1.066.758.177.13.29.34.516.42v-.05c-.114-.145-.145-.354-.258-.517-.16-.16-.323-.306-.484-.467a7.692 7.692 0 0 0-1.678-1.629c-.517-.356-1.647-.84-1.856-1.435l-.033-.033c.355-.033.776-.162 1.114-.26.548-.145 1.048-.112 1.613-.257.259-.065.517-.146.776-.226v-.146c-.292-.29-.5-.677-.807-.951a21.618 21.618 0 0 0-2.663-1.985c-.5-.323-1.146-.532-1.679-.807-.193-.097-.515-.145-.629-.307-.29-.355-.452-.822-.661-1.242-.468-.887-.92-1.87-1.323-2.808-.29-.63-.468-1.258-.823-1.84-1.663-2.743-3.47-4.404-6.245-6.034-.597-.34-1.307-.485-2.065-.662-.404-.017-.807-.048-1.21-.064-.26-.114-.518-.42-.743-.566-.92-.58-3.291-1.839-3.97-.177-.435 1.05.646 2.082 1.017 2.614.274.371.63.791.823 1.21.113.275.145.566.258.856.258.71.5 1.5.84 2.162.176.34.37.695.596 1 .13.178.355.258.404.55-.225.322-.243.806-.372 1.21-.58 1.823-.355 4.082.468 5.421.258.404.872 1.291 1.695.952.726-.29.565-1.21.774-2.016.049-.195.016-.323.113-.452v.032c.225.452.452.886.662 1.34.5.79 1.371 1.612 2.098 2.16.386.292.693.792 1.177.97v-.05h-.032c-.097-.144-.242-.209-.371-.321a7.963 7.963 0 0 1-.84-.969c-.677-.903-1.275-1.904-1.806-2.937-.259-.501-.484-1.05-.694-1.55-.097-.192-.097-.483-.258-.58-.243.355-.597.662-.774 1.096-.307.695-.34 1.55-.453 2.438-.064.017-.032 0-.064.032-.516-.129-.694-.661-.888-1.112-.484-1.147-.565-2.986-.145-4.31.112-.338.598-1.403.403-1.726-.097-.307-.42-.483-.597-.726a6.392 6.392 0 0 1-.58-1.033c-.387-.903-.582-1.904-1-2.807-.194-.42-.534-.856-.807-1.243-.307-.436-.646-.742-.888-1.258-.08-.178-.193-.469-.065-.662.032-.129.097-.178.227-.21.208-.178.806.048 1.015.145.598.241 1.098.468 1.598.807.226.161.468.468.758.55h.34c.516.111 1.097.03 1.581.176.855.274 1.63.678 2.324 1.114a14.318 14.318 0 0 1 5.033 5.518c.194.371.276.71.453 1.097.339.792.759 1.599 1.097 2.373.338.758.662 1.532 1.146 2.162.242.339 1.21.516 1.646.694.322.145.823.274 1.114.451.548.338 1.096.726 1.613 1.098.258.194 1.065.596 1.113.92z" fill="#2C7493"/></svg>
